svgs/duotone/dungeon.svg

<svg xmlns="http://www.w3.org/2000/svg" viewBox="0 0 512 512"><!-- Font Awesome Pro 6.0.0-alpha2 by @fontawesome - https://fontawesome.com License - https://fontawesome.com/license (Commercial License) --><defs><style>.fa-secondary{opacity:.4}</style></defs><path d="M240 177.625V472C240 476.375 243.625 480 248 480H264C268.375 480 272 476.375 272 472V177.625C266.75 176.75 261.5 176 256 176S245.25 176.75 240 177.625ZM176 219.125V472C176 476.375 179.625 480 184 480H200C204.375 480 208 476.375 208 472V189.375C195.25 196.75 184.125 206.875 176 219.125ZM304 189.375V472C304 476.375 307.625 480 312 480H328C332.375 480 336 476.375 336 472V219.125C327.875 206.875 316.75 196.75 304 189.375Z" class="fa-secondary"/><path d="M128.75 195.375L45.875 143.5C37.875 138.5 26.875 141.375 23 150C10.125 178.125 2.5 208.375 0.5 239.25C0 248.375 7.625 256 16.75 256H113.875C121.75 256 127.875 249.75 128.875 241.875C129.875 232.5 132.125 223.5 135.125 214.875C137.625 207.5 135.375 199.5 128.75 195.375ZM319 8C298.875 2.875 277.75 0 256 0S213.125 2.875 193 8C183.75 10.375 179 20.625 182.625 29.375L220 133.375C222.375 139.75 228.375 144 235.125 144H276.875C283.625 144 289.625 139.75 292 133.375L329.375 29.375C333 20.625 328.25 10.375 319 8ZM112 288H16C7.125 288 0 295.125 0 304V368C0 376.875 7.125 384 16 384H112C120.875 384 128 376.875 128 368V304C128 295.125 120.875 288 112 288ZM112 416H16C7.125 416 0 423.125 0 432V496C0 504.875 7.125 512 16 512H112C120.875 512 128 504.875 128 496V432C128 423.125 120.875 416 112 416ZM189.25 132.375L153 41.5C149.5 32.75 138.875 28.5 130.625 33.25C103.25 48.625 79 69 59 93.125C52.875 100.375 55.125 111.625 63.125 116.625L146.125 168.5C152.625 172.5 160.75 171.125 166.25 165.625C171.375 160.5 177 155.875 183 151.625C189.25 147.25 192.125 139.5 189.25 132.375ZM398.125 256H495.25C504.375 256 512 248.375 511.5 239.25C509.5 208.375 501.875 178.125 489 150C485.125 141.375 474.125 138.5 466.125 143.5L383.25 195.375C376.625 199.5 374.375 207.5 376.875 214.875C380 223.5 382.125 232.5 383.125 241.875C384.125 249.75 390.25 256 398.125 256ZM453 93.125C433 69 408.75 48.625 381.375 33.25C373.125 28.5 362.5 32.75 359 41.5L322.625 132.375C319.875 139.5 322.75 147.25 329 151.625C335 155.75 340.625 160.5 345.75 165.625C351.25 171.125 359.375 172.5 365.875 168.5L448.75 116.625C456.875 111.625 459.125 100.375 453 93.125ZM496 288H400C391.125 288 384 295.125 384 304V368C384 376.875 391.125 384 400 384H496C504.875 384 512 376.875 512 368V304C512 295.125 504.875 288 496 288ZM496 416H400C391.125 416 384 423.125 384 432V496C384 504.875 391.125 512 400 512H496C504.875 512 512 504.875 512 496V432C512 423.125 504.875 416 496 416Z" class="fa-primary"/></svg>

<svg xmlns="http://www.w3.org/2000/svg" viewBox="0 0 512 512"><!-- Font Awesome Pro 5.15.1 by @fontawesome - https://fontawesome.com License - https://fontawesome.com/license (Commercial License) --><defs><style>.fa-secondary{opacity:.4}</style></defs><path d="M304 189.36V472a8 8 0 0 0 8 8h16a8 8 0 0 0 8-8V219.13a96.32 96.32 0 0 0-32-29.77zm-64-11.74V472a8 8 0 0 0 8 8h16a8 8 0 0 0 8-8V177.62a94.83 94.83 0 0 0-16-1.62 94.83 94.83 0 0 0-16 1.62zm-64 41.51V472a8 8 0 0 0 8 8h16a8 8 0 0 0 8-8V189.36a96.32 96.32 0 0 0-32 29.77z" class="fa-secondary"/><path d="M112 288H16a16 16 0 0 0-16 16v64a16 16 0 0 0 16 16h96a16 16 0 0 0 16-16v-64a16 16 0 0 0-16-16zm16.73-92.68l-82.81-51.76c-8-5-19-2.17-22.93 6.45A254.32 254.32 0 0 0 .54 239.28C0 248.37 7.59 256 16.69 256h97.13c8 0 14.08-6.25 15-14.16a126.36 126.36 0 0 1 6.24-26.94c2.57-7.34.26-15.46-6.33-19.58zM453 93.11a257.4 257.4 0 0 0-71.61-59.89c-8.28-4.68-18.88-.52-22.42 8.31l-36.32 90.8c-2.85 7.12 0 14.88 6.3 19.28a127.56 127.56 0 0 1 16.79 14c5.44 5.41 13.6 6.86 20.11 2.79l82.93-51.83c8.1-4.98 10.32-16.14 4.22-23.46zM496 416h-96a16 16 0 0 0-16 16v64a16 16 0 0 0 16 16h96a16 16 0 0 0 16-16v-64a16 16 0 0 0-16-16zM153 41.53c-3.53-8.83-14.13-13-22.42-8.31A257.4 257.4 0 0 0 59 93.11c-6.06 7.32-3.85 18.48 4.22 23.52l82.93 51.83c6.51 4.07 14.66 2.62 20.11-2.79a127.56 127.56 0 0 1 16.79-14c6.28-4.41 9.15-12.17 6.3-19.29zM112 416H16a16 16 0 0 0-16 16v64a16 16 0 0 0 16 16h96a16 16 0 0 0 16-16v-64a16 16 0 0 0-16-16zm384-128h-96a16 16 0 0 0-16 16v64a16 16 0 0 0 16 16h96a16 16 0 0 0 16-16v-64a16 16 0 0 0-16-16zm-97.82-32h97.13c9.1 0 16.74-7.63 16.15-16.72A254.05 254.05 0 0 0 489 150c-3.94-8.62-14.89-11.47-22.93-6.45l-82.81 51.76c-6.59 4.12-8.9 12.24-6.34 19.58a125.9 125.9 0 0 1 6.24 26.94c.94 7.92 7.06 14.17 15.02 14.17zM319 8a252.3 252.3 0 0 0-126 0c-9.17 2.35-13.91 12.6-10.39 21.39l37.47 104a16 16 0 0 0 15 10.58h41.8A16 16 0 0 0 292 133.42l37.47-104C332.94 20.6 328.2 10.36 319 8z" class="fa-primary"/></svg>
